X: 10184
T: Dinny O'Brien's
R: reel
M: 4/4
K: Dmixolydian
fd~d2 d^cAB|~c2Bd cAGE|D2 (3FED ADFD|(3EFG AB cdeg|
fd~d2 d^cAB|~c2Bd cAGE|DEFD (3EFG AB|cAGE FDDe:|
|:fed^c defg|ad~d2 adfd|(3efg cB cdef|gc~c2 gceg|
1 fd~d2 d^cAB|~c2Bd cAGE|DEFD (3EFG AB|cAGE FDDe:|
2 fd~d2 ABcA|dedB ^cAGE|DEFD (3EFG AB|cAGE FDDe||

